X: 2898
T: Barney Brannigan
R: slip jig
M: 9/8
K: Dmajor
F2A ABA ABA|F2A ABA Bcd|F2A ABA ABA|BGB .e2d cBA|
F2A D3 D3|F2A D3 Bcd|F2A D3 D3|BGB .e2d cBA||
.f2a f2a fed|.f2a f2a gfe|.f2a f2a fed|g2f e2d cBA|
.f2A f2A fed|.f2A f2a gfe|.f2A f2A fed|g2f e2d cBA||
.f3 .a3 d2f|g2f e2d cBA|f2a e2f d2B|A2B A2G FED|
.F3 .A3 D3|G2F E2D cBA|.F3 .A3 D3|B3 A2G FED||

